X: 13905
T: Fox's Sleep, The
R: barndance
M: 4/4
K: Dmajor
A|d2 d>c (cB)AF|A2 Bc d2 dc|(cB)AF (GF)E>D|D2 z2 z2 A2|
d2 d>c (cB)A>F|A2 B>c {e}d2 dc|{B}A2 F>D (AG)E>F|D2 z2 z2 A2|
d2 d>c (cB)cd|e>de>f A2 z A|d>cd>e (fe)dc|{e}d2 z2 z2 A2|
d2 dc (cB)AA|(AF)AB {B}d2 (dc)|(BA)F>D (GF)E>G|D2 z2 z2 z2||

